X:103
T:? Eye. MBe.103
S:Matthew Betham MS, Towcett Cumbria, 1815
O:England;Cumbria;Towcett
Z:VMP – Hugh Taylor, 2012
M:4/4
L:1/8
Q:1/4=100
R:.Reel
N:The page is torn and the title and music are incomplete.
K:D
:”>page torn”yyy:ef dBBd|ABAF ABde|faef d2d:|
|:g|fa a2 gb b2|agfe dB B2|fa a2 gb b2|d’c’ba b2b2|
:”>page torn”yyy:ef dBBd|ABAF ABde|faef dd2:|

